X:1
T:Christy Barry's
R:jig
M:6/8
L:1/8
K:G
G2A BGG|A2B d2e|ged BGG|AGA BGE|
G2A BGG|A2B d2e|ged BGG|1 AGF G2D:|2 AGF GBd|]
~g3 gfg|a2f d2f|ged BGG|AGE GED|
G2A BGG|A2B d2e|ged BGG|1 AGF GBd:|2 AGF G2D|]
</abc>
